static/assets/images/icons/gear.svg

<svg width="256" height="256" viewBox="0 0 256 256" fill="none" xmlns="http://www.w3.org/2000/svg">
<path fill-rule="evenodd" clip-rule="evenodd" d="M41.8017 177.99C37.5658 170.681 34.2724 162.867 32 154.733C36.9394 152.226 41.088 148.402 43.9866 143.686C46.8853 138.97 48.4212 133.545 48.4243 128.012C48.4274 122.478 46.8976 117.051 44.0043 112.332C41.1109 107.613 36.9666 103.785 32.03 101.272C36.5529 84.93 45.1666 70.007 57.0599 57.9082C61.7064 60.9278 67.0992 62.6042 72.641 62.7518C78.1828 62.8994 83.6573 61.5125 88.4585 58.7445C93.2597 55.9766 97.2001 51.9357 99.8434 47.0693C102.487 42.2028 103.73 36.7008 103.435 31.1723C119.877 26.9324 137.128 26.9428 153.565 31.2023C153.276 36.7283 154.523 42.2263 157.169 47.0883C159.815 51.9502 163.756 55.9866 168.556 58.7508C173.356 61.5149 178.828 62.8993 184.367 62.7506C189.906 62.6019 195.296 60.9259 199.94 57.9082C211.82 70.0184 220.44 84.9317 225 101.262C220.061 103.77 215.913 107.594 213.015 112.311C210.118 117.028 208.583 122.453 208.581 127.986C208.579 133.52 210.109 138.946 213.004 143.665C215.898 148.384 220.043 152.211 224.98 154.723C220.454 171.066 211.837 185.989 199.94 198.087C195.294 195.067 189.901 193.391 184.359 193.243C178.817 193.096 173.343 194.483 168.541 197.25C163.74 200.018 159.8 204.059 157.157 208.926C154.513 213.792 153.27 219.294 153.565 224.823C137.124 229.066 119.872 229.059 103.435 224.803C103.725 219.277 102.478 213.78 99.8337 208.918C97.1893 204.056 93.2498 200.02 88.4511 197.254C83.6523 194.489 78.1812 193.104 72.6429 193.251C67.1046 193.397 61.7149 195.071 57.0699 198.087C51.1492 192.058 46.0258 185.305 41.8017 177.99ZM107.266 149.207C112.899 154.833 120.539 157.993 128.505 157.993C136.471 157.993 144.111 154.833 149.744 149.207C155.376 143.582 158.541 135.953 158.541 127.997C158.541 120.042 155.376 112.413 149.744 106.788C144.111 101.162 136.471 98.0021 128.505 98.0021C120.539 98.0021 112.899 101.162 107.266 106.788C101.634 112.413 98.4692 120.042 98.4692 127.997C98.4692 135.953 101.634 143.582 107.266 149.207Z" fill="black"/>
<path fill-rule="evenodd" clip-rule="evenodd" d="M41.8017 177.99C37.5658 170.681 34.2724 162.867 32 154.733C36.9394 152.226 41.088 148.402 43.9866 143.686C46.8853 138.97 48.4212 133.545 48.4243 128.012C48.4274 122.478 46.8976 117.051 44.0043 112.332C41.1109 107.613 36.9666 103.785 32.03 101.272C36.5529 84.93 45.1666 70.007 57.0599 57.9082C61.7064 60.9278 67.0992 62.6042 72.641 62.7518C78.1828 62.8994 83.6573 61.5125 88.4585 58.7445C93.2597 55.9766 97.2001 51.9357 99.8434 47.0693C102.487 42.2028 103.73 36.7008 103.435 31.1723C119.877 26.9324 137.128 26.9428 153.565 31.2023C153.276 36.7283 154.523 42.2263 157.169 47.0883C159.815 51.9502 163.756 55.9866 168.556 58.7508C173.356 61.5149 178.828 62.8993 184.367 62.7506C189.906 62.6019 195.296 60.9259 199.94 57.9082C211.82 70.0184 220.44 84.9317 225 101.262C220.061 103.77 215.913 107.594 213.015 112.311C210.118 117.028 208.583 122.453 208.581 127.986C208.579 133.52 210.109 138.946 213.004 143.665C215.898 148.384 220.043 152.211 224.98 154.723C220.454 171.066 211.837 185.989 199.94 198.087C195.294 195.067 189.901 193.391 184.359 193.243C178.817 193.096 173.343 194.483 168.541 197.25C163.74 200.018 159.8 204.059 157.157 208.926C154.513 213.792 153.27 219.294 153.565 224.823C137.124 229.066 119.872 229.059 103.435 224.803C103.725 219.277 102.478 213.78 99.8337 208.918C97.1893 204.056 93.2498 200.02 88.4511 197.254C83.6523 194.489 78.1812 193.104 72.6429 193.251C67.1046 193.397 61.7149 195.071 57.0699 198.087C51.1492 192.058 46.0258 185.305 41.8017 177.99ZM107.266 149.207C112.899 154.833 120.539 157.993 128.505 157.993C136.471 157.993 144.111 154.833 149.744 149.207C155.376 143.582 158.541 135.953 158.541 127.997C158.541 120.042 155.376 112.413 149.744 106.788C144.111 101.162 136.471 98.0021 128.505 98.0021C120.539 98.0021 112.899 101.162 107.266 106.788C101.634 112.413 98.4692 120.042 98.4692 127.997C98.4692 135.953 101.634 143.582 107.266 149.207Z" fill="black"/>
</svg>

<svg xmlns="http://www.w3.org/2000/svg" fill="none" viewBox="0 0 256 256"><path fill="#000" fill-rule="evenodd" d="M41.802 177.99A100 100 0 0 1 32 154.733a30 30 0 0 0 11.987-11.047 29.97 29.97 0 0 0 .017-31.354 30 30 0 0 0-11.974-11.06 99.85 99.85 0 0 1 25.03-43.364 30.06 30.06 0 0 0 31.399.837 30 30 0 0 0 11.384-11.676 29.96 29.96 0 0 0 3.592-15.897 100.15 100.15 0 0 1 50.13.03 29.96 29.96 0 0 0 3.604 15.886 30 30 0 0 0 11.387 11.663 30.07 30.07 0 0 0 31.384-.843A100.5 100.5 0 0 1 225 101.262a30 30 0 0 0-11.985 11.049 29.96 29.96 0 0 0-.011 31.354 30 30 0 0 0 11.976 11.058 99.86 99.86 0 0 1-25.04 43.364 30.06 30.06 0 0 0-15.581-4.844 30.1 30.1 0 0 0-15.818 4.007 30 30 0 0 0-11.384 11.676 29.95 29.95 0 0 0-3.592 15.897 100.16 100.16 0 0 1-50.13-.02 29.96 29.96 0 0 0-3.601-15.885 30 30 0 0 0-11.383-11.664 30.07 30.07 0 0 0-31.381.833 100 100 0 0 1-15.268-20.097m65.464-28.783a30.06 30.06 0 0 0 21.239 8.786c7.966 0 15.606-3.16 21.239-8.786a29.98 29.98 0 0 0 8.797-21.21 29.98 29.98 0 0 0-8.797-21.209 30.06 30.06 0 0 0-21.239-8.786 30.06 30.06 0 0 0-21.239 8.786 29.98 29.98 0 0 0-8.797 21.209 29.98 29.98 0 0 0 8.797 21.21" clip-rule="evenodd"/><path fill="#000" fill-rule="evenodd" d="M41.802 177.99A100 100 0 0 1 32 154.733a30 30 0 0 0 11.987-11.047 29.97 29.97 0 0 0 .017-31.354 30 30 0 0 0-11.974-11.06 99.85 99.85 0 0 1 25.03-43.364 30.06 30.06 0 0 0 31.399.837 30 30 0 0 0 11.384-11.676 29.96 29.96 0 0 0 3.592-15.897 100.15 100.15 0 0 1 50.13.03 29.96 29.96 0 0 0 3.604 15.886 30 30 0 0 0 11.387 11.663 30.07 30.07 0 0 0 31.384-.843A100.5 100.5 0 0 1 225 101.262a30 30 0 0 0-11.985 11.049 29.96 29.96 0 0 0-.011 31.354 30 30 0 0 0 11.976 11.058 99.86 99.86 0 0 1-25.04 43.364 30.06 30.06 0 0 0-15.581-4.844 30.1 30.1 0 0 0-15.818 4.007 30 30 0 0 0-11.384 11.676 29.95 29.95 0 0 0-3.592 15.897 100.16 100.16 0 0 1-50.13-.02 29.96 29.96 0 0 0-3.601-15.885 30 30 0 0 0-11.383-11.664 30.07 30.07 0 0 0-31.381.833 100 100 0 0 1-15.268-20.097m65.464-28.783a30.06 30.06 0 0 0 21.239 8.786c7.966 0 15.606-3.16 21.239-8.786a29.98 29.98 0 0 0 8.797-21.21 29.98 29.98 0 0 0-8.797-21.209 30.06 30.06 0 0 0-21.239-8.786 30.06 30.06 0 0 0-21.239 8.786 29.98 29.98 0 0 0-8.797 21.209 29.98 29.98 0 0 0 8.797 21.21" clip-rule="evenodd"/></svg>
